file/cisco.svg

<svg clip-rule="evenodd" fill-rule="evenodd" stroke-linejoin="round" stroke-miterlimit="1.41421" viewBox="0 0 560 400" xmlns="http://www.w3.org/2000/svg"><g fill="#049fd9" fill-rule="nonzero" transform="matrix(1.66667 0 0 1.66667 100 105.006)"><path d="m106.48 76.238c-.282-.077-4.621-1.196-9.232-1.196-8.73 0-13.986 4.714-13.986 11.734 0 6.214 4.397 9.313 9.674 10.98.585.193 1.447.463 2.021.653 2.349.739 4.224 1.837 4.224 3.739 0 2.127-2.167 3.504-6.878 3.504-4.14 0-8.109-1.184-8.945-1.395v8.637c.466.099 5.183 1.025 10.222 1.025 7.248 0 15.539-3.167 15.539-12.595 0-4.573-2.8-8.783-8.947-10.737l-2.613-.832c-1.559-.492-4.342-1.289-4.342-3.574 0-1.805 2.062-3.076 5.859-3.076 3.276 0 7.263 1.101 7.404 1.145zm80.041 18.243c0 5.461-4.183 9.879-9.796 9.879-5.619 0-9.791-4.418-9.791-9.879 0-5.45 4.172-9.87 9.791-9.87 5.613 0 9.796 4.42 9.796 9.87m-9.796-19.427c-11.544 0-19.823 8.707-19.823 19.427 0 10.737 8.279 19.438 19.823 19.438 11.543 0 19.834-8.701 19.834-19.438 0-10.72-8.291-19.427-19.834-19.427m-106.164 38.197h-9.472v-37.532h9.472"/><path d="m48.07 76.399c-.89-.264-4.18-1.345-8.636-1.345-11.526 0-19.987 8.218-19.987 19.427 0 12.093 9.34 19.438 19.987 19.438 4.23 0 7.459-1.002 8.636-1.336v-10.075c-.407.226-3.503 1.992-7.957 1.992-6.31 0-10.38-4.441-10.38-10.019 0-5.748 4.246-10.011 10.38-10.011 4.53 0 7.576 1.805 7.957 2.004"/><path d="m48.07 76.399c-.89-.264-4.18-1.345-8.636-1.345-11.526 0-19.987 8.218-19.987 19.427 0 12.093 9.34 19.438 19.987 19.438 4.23 0 7.459-1.002 8.636-1.336v-10.075c-.407.226-3.503 1.992-7.957 1.992-6.31 0-10.38-4.441-10.38-10.019 0-5.748 4.246-10.011 10.38-10.011 4.53 0 7.576 1.805 7.957 2.004" transform="translate(98.86)"/><path d="m61.061 4.759c0-2.587-2.113-4.685-4.703-4.685-2.589 0-4.702 2.098-4.702 4.685v49.84c0 2.602 2.113 4.699 4.702 4.699 2.59 0 4.703-2.097 4.703-4.699zm-25.829 17.692c0-2.586-2.112-4.687-4.702-4.687s-4.702 2.101-4.702 4.687v22.785c0 2.601 2.112 4.699 4.702 4.699s4.702-2.098 4.702-4.699zm-25.828 12.932c0-2.587-2.112-4.684-4.702-4.684-2.587 0-4.702 2.097-4.702 4.684v9.853c0 2.601 2.115 4.699 4.702 4.699 2.59 0 4.702-2.098 4.702-4.699"/><path d="m61.061 4.759c0-2.587-2.113-4.685-4.703-4.685-2.589 0-4.702 2.098-4.702 4.685v49.84c0 2.602 2.113 4.699 4.702 4.699 2.59 0 4.703-2.097 4.703-4.699zm-25.829 17.692c0-2.586-2.112-4.687-4.702-4.687s-4.702 2.101-4.702 4.687v22.785c0 2.601 2.112 4.699 4.702 4.699s4.702-2.098 4.702-4.699zm-25.828 12.932c0-2.587-2.112-4.684-4.702-4.684-2.587 0-4.702 2.097-4.702 4.684v9.853c0 2.601 2.115 4.699 4.702 4.699 2.59 0 4.702-2.098 4.702-4.699" transform="matrix(-1 0 0 1 112.717 0)"/><g transform="matrix(-1 0 0 1 216 0)"><path d="m61.061 4.759c0-2.587-2.113-4.685-4.703-4.685-2.589 0-4.702 2.098-4.702 4.685v49.84c0 2.602 2.113 4.699 4.702 4.699 2.59 0 4.703-2.097 4.703-4.699zm-25.829 17.692c0-2.586-2.112-4.687-4.702-4.687s-4.702 2.101-4.702 4.687v22.785c0 2.601 2.112 4.699 4.702 4.699s4.702-2.098 4.702-4.699zm-25.828 12.932c0-2.587-2.112-4.684-4.702-4.684-2.587 0-4.702 2.097-4.702 4.684v9.853c0 2.601 2.115 4.699 4.702 4.699 2.59 0 4.702-2.098 4.702-4.699"/><path d="m61.061 4.759c0-2.587-2.113-4.685-4.703-4.685-2.589 0-4.702 2.098-4.702 4.685v49.84c0 2.602 2.113 4.699 4.702 4.699 2.59 0 4.703-2.097 4.703-4.699zm-25.829 17.692c0-2.586-2.112-4.687-4.702-4.687s-4.702 2.101-4.702 4.687v22.785c0 2.601 2.112 4.699 4.702 4.699s4.702-2.098 4.702-4.699zm-25.828 12.932c0-2.587-2.112-4.684-4.702-4.684-2.587 0-4.702 2.097-4.702 4.684v9.853c0 2.601 2.115 4.699 4.702 4.699 2.59 0 4.702-2.098 4.702-4.699" transform="matrix(-1 0 0 1 112.717 0)"/></g></g></svg>

<?xml version="1.0" encoding="UTF-8" standalone="no"?>
<!DOCTYPE svg PUBLIC "-//W3C//DTD SVG 1.1//EN" "http://www.w3.org/Graphics/SVG/1.1/DTD/svg11.dtd">
<svg width="100%" height="100%" viewBox="0 0 560 400" version="1.1" xmlns="http://www.w3.org/2000/svg" xmlns:xlink="http://www.w3.org/1999/xlink" xml:space="preserve" xmlns:serif="http://www.serif.com/" style="fill-rule:evenodd;clip-rule:evenodd;stroke-linejoin:round;stroke-miterlimit:1.41421;">
    <g transform="matrix(1.66667,0,0,1.66667,100,105.006)">
        <path id="path10" d="M106.48,76.238C106.198,76.161 101.859,75.042 97.248,75.042C88.518,75.042 83.262,79.756 83.262,86.776C83.262,92.99 87.659,96.089 92.936,97.756C93.521,97.949 94.383,98.219 94.957,98.409C97.306,99.148 99.181,100.246 99.181,102.148C99.181,104.275 97.014,105.652 92.303,105.652C88.163,105.652 84.194,104.468 83.358,104.257L83.358,112.894C83.824,112.993 88.541,113.919 93.58,113.919C100.828,113.919 109.119,110.752 109.119,101.324C109.119,96.751 106.319,92.541 100.172,90.587L97.559,89.755C96,89.263 93.217,88.466 93.217,86.181C93.217,84.376 95.279,83.105 99.076,83.105C102.352,83.105 106.339,84.206 106.48,84.25L106.48,76.238ZM186.521,94.481C186.521,99.942 182.338,104.36 176.725,104.36C171.106,104.36 166.934,99.942 166.934,94.481C166.934,89.031 171.106,84.611 176.725,84.611C182.338,84.611 186.521,89.031 186.521,94.481M176.725,75.054C165.181,75.054 156.902,83.761 156.902,94.481C156.902,105.218 165.181,113.919 176.725,113.919C188.268,113.919 196.559,105.218 196.559,94.481C196.559,83.761 188.268,75.054 176.725,75.054M70.561,113.251L61.089,113.251L61.089,75.719L70.561,75.719" style="fill:rgb(4,159,217);fill-rule:nonzero;"/>
        <path id="path12" d="M48.07,76.399C47.18,76.135 43.89,75.054 39.434,75.054C27.908,75.054 19.447,83.272 19.447,94.481C19.447,106.574 28.787,113.919 39.434,113.919C43.664,113.919 46.893,112.917 48.07,112.583L48.07,102.508C47.663,102.734 44.567,104.5 40.113,104.5C33.803,104.5 29.733,100.059 29.733,94.481C29.733,88.733 33.979,84.47 40.113,84.47C44.643,84.47 47.689,86.275 48.07,86.474" style="fill:rgb(4,159,217);fill-rule:nonzero;"/>
        <g id="use14" transform="matrix(1,0,0,1,98.86,0)">
            <path d="M48.07,76.399C47.18,76.135 43.89,75.054 39.434,75.054C27.908,75.054 19.447,83.272 19.447,94.481C19.447,106.574 28.787,113.919 39.434,113.919C43.664,113.919 46.893,112.917 48.07,112.583L48.07,102.508C47.663,102.734 44.567,104.5 40.113,104.5C33.803,104.5 29.733,100.059 29.733,94.481C29.733,88.733 33.979,84.47 40.113,84.47C44.643,84.47 47.689,86.275 48.07,86.474" style="fill:rgb(4,159,217);fill-rule:nonzero;"/>
        </g>
        <g id="g22">
            <path id="path16" d="M61.061,4.759C61.061,2.172 58.948,0.074 56.358,0.074C53.769,0.074 51.656,2.172 51.656,4.759L51.656,54.599C51.656,57.201 53.769,59.298 56.358,59.298C58.948,59.298 61.061,57.201 61.061,54.599L61.061,4.759ZM35.232,22.451C35.232,19.865 33.12,17.764 30.53,17.764C27.94,17.764 25.828,19.865 25.828,22.451L25.828,45.236C25.828,47.837 27.94,49.935 30.53,49.935C33.12,49.935 35.232,47.837 35.232,45.236L35.232,22.451ZM9.404,35.383C9.404,32.796 7.292,30.699 4.702,30.699C2.115,30.699 0,32.796 0,35.383L0,45.236C0,47.837 2.115,49.935 4.702,49.935C7.292,49.935 9.404,47.837 9.404,45.236" style="fill:rgb(4,159,217);fill-rule:nonzero;"/>
            <g id="use18" transform="matrix(-1,0,0,1,112.717,0)">
                <path d="M61.061,4.759C61.061,2.172 58.948,0.074 56.358,0.074C53.769,0.074 51.656,2.172 51.656,4.759L51.656,54.599C51.656,57.201 53.769,59.298 56.358,59.298C58.948,59.298 61.061,57.201 61.061,54.599L61.061,4.759ZM35.232,22.451C35.232,19.865 33.12,17.764 30.53,17.764C27.94,17.764 25.828,19.865 25.828,22.451L25.828,45.236C25.828,47.837 27.94,49.935 30.53,49.935C33.12,49.935 35.232,47.837 35.232,45.236L35.232,22.451ZM9.404,35.383C9.404,32.796 7.292,30.699 4.702,30.699C2.115,30.699 0,32.796 0,35.383L0,45.236C0,47.837 2.115,49.935 4.702,49.935C7.292,49.935 9.404,47.837 9.404,45.236" style="fill:rgb(4,159,217);fill-rule:nonzero;"/>
            </g>
        </g>
        <g id="use20" transform="matrix(-1,0,0,1,216,0)">
            <path id="path161" serif:id="path16" d="M61.061,4.759C61.061,2.172 58.948,0.074 56.358,0.074C53.769,0.074 51.656,2.172 51.656,4.759L51.656,54.599C51.656,57.201 53.769,59.298 56.358,59.298C58.948,59.298 61.061,57.201 61.061,54.599L61.061,4.759ZM35.232,22.451C35.232,19.865 33.12,17.764 30.53,17.764C27.94,17.764 25.828,19.865 25.828,22.451L25.828,45.236C25.828,47.837 27.94,49.935 30.53,49.935C33.12,49.935 35.232,47.837 35.232,45.236L35.232,22.451ZM9.404,35.383C9.404,32.796 7.292,30.699 4.702,30.699C2.115,30.699 0,32.796 0,35.383L0,45.236C0,47.837 2.115,49.935 4.702,49.935C7.292,49.935 9.404,47.837 9.404,45.236" style="fill:rgb(4,159,217);fill-rule:nonzero;"/>
            <g id="use181" serif:id="use18" transform="matrix(-1,0,0,1,112.717,0)">
                <path d="M61.061,4.759C61.061,2.172 58.948,0.074 56.358,0.074C53.769,0.074 51.656,2.172 51.656,4.759L51.656,54.599C51.656,57.201 53.769,59.298 56.358,59.298C58.948,59.298 61.061,57.201 61.061,54.599L61.061,4.759ZM35.232,22.451C35.232,19.865 33.12,17.764 30.53,17.764C27.94,17.764 25.828,19.865 25.828,22.451L25.828,45.236C25.828,47.837 27.94,49.935 30.53,49.935C33.12,49.935 35.232,47.837 35.232,45.236L35.232,22.451ZM9.404,35.383C9.404,32.796 7.292,30.699 4.702,30.699C2.115,30.699 0,32.796 0,35.383L0,45.236C0,47.837 2.115,49.935 4.702,49.935C7.292,49.935 9.404,47.837 9.404,45.236" style="fill:rgb(4,159,217);fill-rule:nonzero;"/>
            </g>
        </g>
    </g>
</svg>
